!!!OTL: DAS JAHR IST GUT
!!!ARE: Europa, Mitteleuropa, Deutschland, Bayern
!!!SCT: E1169
!!!YEM: Copyright 1995, estate of Helmut Schaffrath.
**kern
*ICvox
*Ivox
*M3/8
*k[f#c#g#]
*A:
{8e
=1
8e
8a
8a
=2
4a
8a
=3
8a
8g#
8f#
=4
8f#
8e}
{8e
=5
8f#
8f#
8f#
=6
8a
8g#
8f#
=7
8f#
8e
8d
=8
8d
8c#}
{8a
=9
8e
8e
8d
=10
8d
8c#
8a
=11
8e
8e
8d
=12
4c#}
{16e
16e
=13
8e
8a
16a
16a
=14
8a
8cc#
16cc#
16cc#
=15
8dd
8b
8b
=16
4ee}
{16cc#
16cc#
=17
8dd
8b
8g#
=18
4a}
{16e
16e
=19
8e
8a
16a
16a
=20
8a
8cc#
16cc#
16cc#
=21
8dd
8b
8b
=22
4ee}
{16cc#
16cc#
=23
8dd
8b
8g#
=24
4a}
==
!!!AGN: Trink -, Zech - Lied; Studenten - Lied
!!!ONB: ESAC (Essen Associative Code) Database: ERK3
!!!AMT: simple triple
!!!AIN: vox
!!!EED: Helmut Schaffrath
!!!EEV: 1.0
*-
